X:26
T:The Plain of the Deer
T:Ma na Bh Fianna (Monea)
R:jig
C:Jim McGraw
O:Co. Fermanagh, Ireland
S:http://www.cranfordpub.com/recordings/mcgraw.htm
D:Melodious Accord, Jim McGraw
Z:psc
H:Ma na Bh Fianna (Monea) Saint Faber's deer found a safe haven from the hounds of baron O' Phelan and blessed Monea saying "Green Monea I pray you may have fields and fountains fair. Twas where Saint Faber's deer arrived alive and hurtless there".
L:1/8
Q:333
M:12/8
K:A
z|e3 edB A3 AB/c/d|e2 a g2 f e2 d Bcd|
e3 edB A3 AB/c/d|e2 fd2 e B2 B Bcd|
e3 edB A3 AB/c/d|e2 a g2 f e2 d Bcd|
~e3 Bcd ~d3 Bcd|c3 deB A3 A2:| 
|:=g|f3 agf eca ecA|fed cdB Ace f2 e|
fdf agf eca ecA|fed cdB A3 A2:|
